!!!!SEGMENT: pl-cz--iii-574--006_rodowski-aleksander--missa-in-c-pleni.krn
!!!cenid: 18xx:1024
!!!COM: Rodowski, Aleksander
!!!COM-rismID:
!!!CDT: <1790->1810
!!!CNT: Polish
!!!OPR: Missa in C
!!!OTL: Pleni
!!!OMV: 006
!!!PDT: 1801
!!!AGN: Sacred; Mass
!!!SMS-siglum: PL-CZ
!!!SMS-shelfmark: III-574
!!!SMS-shelfwork: 001-006 M
!!!SMS-variant:
!!!SMS-altvar:
!!!NIFC-rismSourceID: 300001098
!!!NIFC-islandoraID: pl-cz:39292
!!!URL-pdf-islandora: https://repozytorium.nifc.pl/islandora/object/pl-cz%3A39292/datastream/PDF/view
!!!URL-scan:
!!!ONB-nifc: UWAGA: części Mszy: Kyrie, Christe, Gloria, Credo, Sanctus, Pleni, Benedictus, Agnus Dei
!!!AIN: 1 alto 1 bass 2 clars 1 clrno 2 cor 2 oboe 1 organ 1 soprn 1 timpa 1 tromp 2 violn
!!!key: C
**kern	**fba	**kern	**kern	**kern	**text	**kern	**text	**kern	**text	**kern	**kern	**kern	**kern	**kern	**kern	**kern	**kern	**kern
*	*	*group4	*group4	*group3	*	*group3	*	*group3	*	*	*group2	*group2	*group2	*group2	*group1	*group1	*group1	*group1
*part15	*part15	*part14	*part13	*part12	*part12	*part11	*part11	*part10	*part10	*part9	*part8	*part7	*part6	*part5	*part4	*part3	*part2	*part1
*staff15	*	*staff14	*staff13	*staff12	*staff12	*staff11	*staff11	*staff10	*staff10	*staff9	*staff8	*staff7	*staff6	*staff5	*staff4	*staff3	*staff2	*staff1
*I"Organo.	*	*I"Violino Secondo.	*I"Violino Primo.	*I"Basſo.	*	*I"Alto.	*	*I"Canto.	*	*I"Tympano in C.	*I"Clarino Secondo in C.	*I"Clarino Primo. in C.	*I"Cornu. Secondo.	*I"Cornu. Primo. ex. C.	*I"Clarinetto Secondo. in B.	*I"Clarinetto Primo. in B.	*I"Oboe Secondo.	*I"Oboe Primo.
*I'org	*	*I'vl 2	*I'vl 1	*I'B	*	*I'A	*	*I'S	*	*I'timp	*I'clno 2	*I'clno 1	*I'cor 2	*I'cor 1	*I'cl 2 in B	*I'cl 1 in B	*I'ob 2	*I'ob 1
*Iorgan	*	*Ivioln	*Ivioln	*Ibass	*	*Ialto	*	*Isoprn	*	*Itimpa	*Iclrno	*Itromp	*Icor	*Icor	*Iclars	*Iclars	*Ioboe	*Ioboe
*ICklav	*	*ICstr	*ICstr	*ICvox	*	*ICvox	*	*ICvox	*	*ICidio	*ICbras	*ICbras	*ICbras	*ICbras	*ICww	*ICww	*ICww	*ICww
*IGcont	*	*	*	*	*	*	*	*	*	*	*	*	*	*	*	*	*	*
*clefF4	*	*clefG2	*clefG2	*clefF4	*	*clefC3	*	*clefC1	*	*clefF4	*clefG2	*clefG2	*clefG2	*clefG2	*clefG2	*clefG2	*clefG2	*clefG2
*	*	*	*	*	*	*	*	*	*	*	*	*	*ITrd0c0	*ITrd0c0	*ITrd1c2	*ITrd1c2	*	*
*k[]	*	*k[]	*k[]	*k[]	*	*k[]	*	*k[]	*	*k[]	*k[]	*k[]	*k[]	*k[]	*k[]	*k[]	*k[]	*k[]
*C:	*	*C:	*C:	*C:	*	*C:	*	*C:	*	*C:	*C:	*C:	*C:	*C:	*C:	*C:	*C:	*C:
*M3/4	*	*M3/4	*M3/4	*M3/4	*	*M3/4	*	*M3/4	*	*M3/4	*M3/4	*M3/4	*M3/4	*M3/4	*M3/4	*M3/4	*M3/4	*M3/4
=1	=1	=1	=1	=1	=1	=1	=1	=1	=1	=1	=1	=1	=1	=1	=1	=1	=1	=1
!LO:TX:t=P:problem=mixed beam	!	!LO:TX:a:i:t=Allegro	!LO:TX:a:i:t=Allegro	!	!	!	!	!	!	!	!	!LO:TX:a:i:t=Allegro	!	!	!LO:TX:a:i:t=Allegro	!LO:TX:a:i:t=Allegro.	!LO:TX:a:i:t=Allegro	!LO:TX:a:i:t=Allegro
8C/L	.	4e 4G/	4cc 4e 4G/	4c\	Ple-	4cc\	Ple-	4ee\	Ple-	8C/L	8c/L	8c/L	8c/L	8c/L	4cc\	4ee\	4cc\	4ee\
8c\	.	.	.	.	.	.	.	.	.	8C/	8cc/	8cc/	8cc/	8cc/	.	.	.	.
8G\	.	4e 4G/	4cc 4e 4G/	4c\	-ni	4cc\	-ni	4ee\	-ni	8GG/	8g/	8g/	8g/	8g/	4cc\	4ee\	4cc\	4ee\
8c\	.	.	.	.	.	.	.	.	.	8C/	8cc/	8cc/	8cc/	8cc/	.	.	.	.
8E\	.	4e 4G/	4cc 4e 4G/	4c\	sunt	4cc\	sunt	4ee\	sunt	8GG/	8g/	8g/	8g/	8g/	4cc\	4ee\	4cc\	4ee\
8C\J	.	.	.	.	.	.	.	.	.	8C/J	8c/J	8c/J	8c/J	8c/J	.	.	.	.
=2	=2	=2	=2	=2	=2	=2	=2	=2	=2	=2	=2	=2	=2	=2	=2	=2	=2	=2
!	!	!LO:N:vis=32	!	!	!	!	!	!	!	!	!	!	!	!	!	!	!	!
4G\	.	16fLL 16G/	16b\LL	4.G\	Coe-	4.ee\	Coe-	4.gg\	Coe-	4GG/	4G/	4g/	4G/	4g/	4dd\	4ff\	4dd\	4ff\
!	!	!LO:N:vis=32	!	!	!	!	!	!	!	!	!	!	!	!	!	!	!	!
.	.	16B/	16dd\	.	.	.	.	.	.	.	.	.	.	.	.	.	.	.
!	!	!LO:N:vis=32	!	!	!	!	!	!	!	!	!	!	!	!	!	!	!	!
.	.	16c/	16ee\	.	.	.	.	.	.	.	.	.	.	.	.	.	.	.
!	!	!LO:N:vis=32	!	!	!	!	!	!	!	!	!	!	!	!	!	!	!	!
.	.	16d/JJ	16ff\JJ	.	.	.	.	.	.	.	.	.	.	.	.	.	.	.
!	!	!LO:N:vis=32	!	!	!	!	!	!	!	!	!	!	!	!	!	!	!	!
4GG/	.	16e/LL	16gg\LL	.	.	.	.	.	.	4r	4r	4r	4r	4r	4b\	4dd\	4b\	4dd\
!	!	!LO:N:vis=32	!	!	!	!	!	!	!	!	!	!	!	!	!	!	!	!
.	.	16f/	16aa\	.	.	.	.	.	.	.	.	.	.	.	.	.	.	.
!	!	!LO:N:vis=32	!	!	!	!LO:N:vis=4	!	!	!	!	!	!	!	!	!	!	!	!
.	.	16g/	16bb\	8G\	-li	8dd\	-li	(8ff\	-li	.	.	.	.	.	.	.	.	.
!	!	!LO:N:vis=32	!	!	!	!	!	!	!	!	!	!	!	!	!	!	!	!
.	.	16a/JJ	16ccc\JJ	.	.	.	.	.	.	.	.	.	.	.	.	.	.	.
!	!	!	!	!LO:N:vis=4	!	!	!	!	!	!	!	!	!	!	!	!	!	!
4r	.	4b/	4ddd\	8G\	.	4b\	.	4dd\)	.	4r	4r	4r	4r	4r	4r	4r	4r	4r
!	!	!	!	!LO:N:vis=4	!	!	!	!	!	!	!	!	!	!	!	!	!	!
.	.	.	.	8r	.	.	.	.	.	.	.	.	.	.	.	.	.	.
=3	=3	=3	=3	=3	=3	=3	=3	=3	=3	=3	=3	=3	=3	=3	=3	=3	=3	=3
!	!	!	!	!	!	!	!	!	!	!LO:TX:a:t=6.	!LO:TX:a:t=3.	!LO:TX:a:t=3.	!	!	!	!	!	!
8GG/L	3	4b 4d 4G/	4ff\	4G\	Coe-	4dd\	Coe-	4ff\	Coe-	0.r	1.r	1.r	4dd\	4ff\	4dd\	4ff\	4dd\	4ff\
8GG/	3	.	.	.	.	.	.	.	.	.	.	.	.	.	.	.	.	.
8AA/	3	4b 4d 4G/	4gg\	8A\L	-li	4ee\	-li	4gg\	-li	.	.	.	4ee\	4gg\	4ee\	4gg\	4ee\	4gg\
8GG/	3	.	.	8G\	.	.	.	.	.	.	.	.	.	.	.	.	.	.
8AA/	3	4b 4d 4G/	4ff\	8A\	et	4dd\	et	4ff\	et	.	.	.	4dd\	4ff\	4dd\	4ff\	4dd\	4ff\
8BB/J	3	.	.	8B\J	.	.	.	.	.	.	.	.	.	.	.	.	.	.
!	!	!	!	!	!	!LO:LB:g=original	!	!	!	!	!	!	!	!	!	!	!	!
=4	=4	=4	=4	=4	=4	=4	=4	=4	=4	=4	=4	=4	=4	=4	=4	=4	=4	=4
4C/	.	16ccLL 16e 16G/	16ee\LL	4.c\	ter-	4.ee\	ter-	4.gg\	ter-	.	.	.	4ee\	4gg\	4g/	4ee\	4g/	4ee\
.	.	16e/	16cc\	.	.	.	.	.	.	.	.	.	.	.	.	.	.	.
.	.	16f/	16dd\	.	.	.	.	.	.	.	.	.	.	.	.	.	.	.
.	.	16g/JJ	16ee\JJ	.	.	.	.	.	.	.	.	.	.	.	.	.	.	.
4CC/	.	16a\LL	16ff\LL	.	.	.	.	.	.	.	.	.	4cc\	4ee\	4e/	4cc\	4e/	4cc\
.	.	16b\	16gg\	.	.	.	.	.	.	.	.	.	.	.	.	.	.	.
.	.	16cc\	16aa\	8C/	.	8dd\	-ra	(8ff\	-ra	.	.	.	.	.	.	.	.	.
.	.	16dd\JJ	16bb\JJ	.	.	.	.	.	.	.	.	.	.	.	.	.	.	.
!	!	!	!	!LO:LN:vis=4	!	!	!	!	!	!	!	!	!	!	!	!	!	!
4r	.	4ee\	4ccc\	8C/	-ra	4cc\	.	4ee\)	.	.	.	.	4r	4r	4r	4r	4r	4r
!	!	!	!	!LO:LN:vis=4	!	!	!	!	!	!	!	!	!	!	!	!	!	!
.	.	.	.	8r	.	.	.	.	.	.	.	.	.	.	.	.	.	.
=5	=5	=5	=5	=5	=5	=5	=5	=5	=5	=5	=5	=5	=5	=5	=5	=5	=5	=5
!	!	!	!	!	!	!	!	!	!	!	!	!	!LO:TX:a:t=1.	!LO:TX:a:t=1.	!	!	!	!
8.c\L	.	8.ee\L	8.ccc\L	4c\	glo-	4cc\	glo-	4ee\	glo-	.	2.r	2.r	2.r	2.r	8.cc\L	8.ccc\L	8.cc\L	8.ccc\L
16c\Jk	.	16ee\Jk	16ccc\Jk	.	.	.	.	.	.	.	.	.	.	.	16cc\Jk	16ccc\Jk	16cc\Jk	16ccc\Jk
8.A\L	6 3	8.cc\L	8.ee\L	4A\	-ri-	4cc\	-ri-	4ee\	-ri-	.	.	.	.	.	8.cc\L	8.ee\L	8.cc\L	8.ee\L
16A\Jk	.	16cc\Jk	16ee\Jk	.	.	.	.	.	.	.	.	.	.	.	16cc\Jk	16ee\Jk	16cc\Jk	16ee\Jk
8.F#X\L	6 5	8.a/L	8.ff#X\L	4F#X\	-a	4dd\	-a	4ff#X\	-a	.	.	.	.	.	8.cc\L	8.ff#X\L	8.dd\L	8.ff#X\L
16F#\Jk	.	16a/Jk	16ff#\Jk	.	.	.	.	.	.	.	.	.	.	.	16cc\Jk	16ff#\Jk	16dd\Jk	16ff#\Jk
!	!	!	!LO:LB:g=original	!LO:LB:g=original	!	!	!	!	!	!	!	!	!	!	!LO:LB:g=original	!LO:LB:g=original	!	!
=6	=6	=6	=6	=6	=6	=6	=6	=6	=6	=6	=6	=6	=6	=6	=6	=6	=6	=6
!	!	!	!	!	!	!	!	!	!	!	!LO:N:vis=1	!LO:N:vis=1	!LO:N:vis=1	!LO:N:vis=1	!	!	!	!
4G\	.	8.cc\L	8.aa\L	4.G\	tu-	8.cc\L	tu-	8.aa\L	tu-	.	2.G/	2.g/	2.g/	2.g/	8.cc\L	8.aa\L	8.cc\L	8.aa\L
.	.	16b\Jk	16gg\Jk	.	.	16b\Jk	.	16gg\Jk	.	.	.	.	.	.	16b\Jk	16gg\Jk	16b\Jk	16gg\Jk
4GG/	.	4b\	4gg\	.	.	4b\	-a.	4gg\	-a.	.	.	.	.	.	8b\L	8gg\L	8b\L	8gg\L
!	!	!	!	!	!	!	!	!	!	!	!	!	!	!	!	!LO:TX:a:i:t=Solo	!	!
.	.	.	.	8G\	.	.	.	.	.	.	.	.	.	.	8b\	8dd\	8b\	8dd\
4r	.	4r	4r	4G\	-a.	4r	.	4r	.	.	.	.	.	.	8cc\	8ee\	8cc\	8ee\
.	.	.	.	.	.	.	.	.	.	.	.	.	.	.	8a\J	8ff#X\J	8a\J	8ff#X\J
!	!	!	!	!	!	!	!	!LO:LB:g=original	!	!	!	!	!	!	!	!	!LO:LB:g=original	!LO:LB:g=original
=7	=7	=7	=7	=7	=7	=7	=7	=7	=7	=7	=7	=7	=7	=7	=7	=7	=7	=7
!	!	!LO:TX:a:t=2.	!LO:TX:a:t=2.	!LO:TX:a:t=4	!	!LO:TX:a:t=4.	!	!LO:TX:a:t=4.	!	!	!LO:N:vis=1	!LO:N:vis=1	!LO:N:vis=1	!LO:N:vis=1	!	!	!	!
4GG/	.	1.r	1.r	0.r	.	0.r	.	0.r	.	1.r	2.G/	2.g/	2.g/	2.g/	8b\L	8gg\L	8b\L	8gg\L
.	.	.	.	.	.	.	.	.	.	.	.	.	.	.	8a\	8ff#X\	8a\	8ff#X\
4G\	.	.	.	.	.	.	.	.	.	.	.	.	.	.	8cc\	8ee\	8cc\	8ee\
.	.	.	.	.	.	.	.	.	.	.	.	.	.	.	8ee\	8ccc\	8ee\	8ccc\
4r	.	.	.	.	.	.	.	.	.	.	.	.	.	.	8cc\	8ee\	8cc\	8ee\
.	.	.	.	.	.	.	.	.	.	.	.	.	.	.	8a\J	8ff#X\J	8a\J	8ff#X\J
!LO:LB:g=original	!	!	!	!	!	!	!	!	!	!	!	!	!	!	!	!	!	!
=8	=8	=8	=8	=8	=8	=8	=8	=8	=8	=8	=8	=8	=8	=8	=8	=8	=8	=8
!	!	!	!	!	!	!	!	!	!	!	!LO:N:vis=1	!LO:N:vis=1	!LO:N:vis=1	!LO:N:vis=1	!	!	!	!
4GG/	.	.	.	.	.	.	.	.	.	.	2.G/	2.g/	2.g/	2.g/	8b\L	8gg\L	8b\L	8gg\L
.	.	.	.	.	.	.	.	.	.	.	.	.	.	.	8a\	8ff#X\	8a\	8ff#X\
4G\	.	.	.	.	.	.	.	.	.	.	.	.	.	.	8cc\	8ee\	8cc\	8ee\
.	.	.	.	.	.	.	.	.	.	.	.	.	.	.	8b\	8dd\	8b\	8dd\
4r	.	.	.	.	.	.	.	.	.	.	.	.	.	.	8cc\	8ee\	8cc\	8ee\
.	.	.	.	.	.	.	.	.	.	.	.	.	.	.	8b\J	8ff#X\J	8b\J	8ff#X\J
!	!	!LO:LB:g=original	!	!	!	!	!	!	!	!	!	!	!	!	!	!	!	!
=9	=9	=9	=9	=9	=9	=9	=9	=9	=9	=9	=9	=9	=9	=9	=9	=9	=9	=9
*	*	*	*	*	*	*	*	*	*	*	*	*	*	*	*Xtuplet	*Xtuplet	*Xtuplet	*Xtuplet
!LO:TX:t=P:problem=dźwięk nieczytelny	!	!	!	!	!	!	!	!	!	!	!	!	!	!	!	!	!	!
8GG/yy	.	8g 8G/	8b 8d/	.	.	.	.	.	.	8GG/	8G/	8g/	8g/	8g/	12b\L	(12gg\L	12a\L	12gg\L
.	.	.	.	.	.	.	.	.	.	.	.	.	.	.	12.dd\	12.bb\	12.dd\	12.bb\
8r	.	8r	8r	.	.	.	.	.	.	8r	8r	8r	8r	8r	.	.	.	.
.	.	.	.	.	.	.	.	.	.	.	.	.	.	.	24cc\Jk	24aa\Jk)	24cc\Jk	24aa\Jk
8GG/	.	8g 8G/	8b 8d/	.	.	.	.	.	.	8GG/	8G/	8g/	8g/	8g/	12b\L	(12gg\L	12b\L	12gg\L
.	.	.	.	.	.	.	.	.	.	.	.	.	.	.	12.dd\	12.bb\	12.dd\	12.bb\
8r	.	8r	8r	.	.	.	.	.	.	8r	8r	8r	8r	8r	.	.	.	.
.	.	.	.	.	.	.	.	.	.	.	.	.	.	.	24cc\Jk	24aa\Jk)	24cc\Jk	24aa\Jk
8GG/	.	8g 8G/	8b 8d/	.	.	.	.	.	.	8GG/	8G/	8g/	8g/	8g/	12b\L	(12gg\L	12b\L	12gg\L
.	.	.	.	.	.	.	.	.	.	.	.	.	.	.	12.dd\	12.bb\	12.dd\	12.bb\
8r	.	8r	8r	.	.	.	.	.	.	8r	8r	8r	8r	8r	.	.	.	.
.	.	.	.	.	.	.	.	.	.	.	.	.	.	.	24cc\Jk	24aa\Jk)	24cc\Jk	24aa\Jk
!	!	!	!	!	!	!	!	!	!	!	!LO:LB:g=original	!	!LO:LB:g=original	!	!	!	!	!
=10	=10	=10	=10	=10	=10	=10	=10	=10	=10	=10	=10	=10	=10	=10	=10	=10	=10	=10
*	*	*	*	*	*	*	*	*	*	*	*	*	*	*	*2\right	*2\right	*2\right	*2\right
2GG/	.	2g 2G/	2b 2d/	.	.	.	.	.	.	2GG/	2G/	2g/	2g/	2g/	2.b\	2.gg\	2.b\	2.gg\
!	!	!	!LO:TX:b:i:t=Sequitur Ben(edi)ctus.	!	!	!	!	!	!	!LO:TX:b:i:t=Volti Benedict(us)	!	!	!	!	!	!	!	!
4r	.	4r	4r	.	.	.	.	.	.	4r	4r	4r	4r	4r	.	.	.	.
==	==	==	==	==	==	==	==	==	==	==	==	==	==	==	==	==	==	==
*-	*-	*-	*-	*-	*-	*-	*-	*-	*-	*-	*-	*-	*-	*-	*-	*-	*-	*-
!!!system-decoration: [(g1)][(g2)]<s9>[(g3)][(g4)]s15
!!!ENC: Krzysztof Stępień
!!!END: 2020-10-05
!!!ENC: Marta Lawrence
!!!END: 2022-02-03
